X: 10
T: Julia Delaney
B:Francis O'Neill: "The Dance Music of Ireland" (1907) no. 643
R:reel
M:C|
L:1/8
K:Ddor
"Dm"dcAG F2DF | "C"E2CE "Dm"F2D2 | dcAG F2DF | Add^c "(Bb)"defe |
"Dm"dcAG F2DF | "C"E2CE "Dm"F2D2 | dcAG F2DF | Add^c d3e :|
|: "Dm"f2fe fagf | "C"ecgc acgc | "Dm"fede fagf | "C"edcB "Dm"Adde|
"Dm"f2fe fagf | "C"ecgc acgc | "Dm"fedf "C"edcB | "Dm"Add^c d3e :|


